X: 10114
T: LOCH TURRET -- Reel (1748)
C: Arranged by W. B. LAYBOURN
R: Reel
B: K\"ohler's Violin Repository, v.1, 1885 p.11 #4
F: http://www.archive.org/details/klersviolinrepos01edin
Z: 2011 John Chambers <jc:trillian.mit.edu>
N: Time signature missing; fixed.
M: C|
L: 1/8
K: G
|: (Bd)dg (ed)eg | (de)Bd (gd)eg | (Bd)dg (ed)eg | (de)Bg (A2G2) :|
|: (G/A/B/c/ d)B GBgB | (G/A/B/c/ d)B gBAB | (G/A/B/c/ d)B gdec | BGAB G/G/GG2 :|

%%sep 2 1 500

